X: 6
T: Inisheer
R: waltz
M: 3/4
L: 1/8
K: Dmix
D2|:B3A B<d | B3A B<d | E3B AB | D3B A<G |
B3A B<d | B3A B<d | G3B A/G/F|1 G4D2:|2 G3A Bd||
e3f e<d | B3A Bd |ef ed B/c/d |
e4 Bd | e3f e<d | B3A B<d | D3B A/G/F|
G3A Bd | e3f e<d | B3A Bd | gf ed B/c/d |
e4 Bd | e3f e<d | B3A B<d | D3B A/G/F| G4 ||


Tune 211	Setting 22688

